X:3215
T:Waterloo
O:ireland
C:Welch MS
M:6/8
L:1/8
Z:abc2nwc
K:G
GBA G2e|d2c B2A|G2G B2B|dcB A2B|
GBA G2e|d2c B2d|c2B AGF|G3G3:|
|:GBA G2d|d2c d2G|GBA G2e|e2d e2z|
GBA G2F|E2E e2e|dcB A2B|G3G3:|
PK
Qu)ä2øw''Vol1.zipPK
@I)ôo·
iiWalter Bulwer's No 2.NWC[NWZ]xÚÍRMKÃ0~Ó-jÙµÇ8O-)xwì"ôà¢cHaÖV²Hñ¤7ÿ®ÿ`¦éiÙ
ä}ÞçÉû-0â'¯xHP2è9Y:	Ò¸ïÄ1a!¹xêâ1%Â0ÓÊÕ?X1Bñèez¶Æ^/Ë»IvE0p¯ùÂ]W}.èXÜ=EÇ")¾M¢ ½-µ18TðO¥µóË¥Æ6¢S,-çÙ/º£Þ-ÏÍ8ßàºÊh*.¸40ß{%Î¶E°ÜÐÌ¶¡Ã17ôÒ8)<U\$
üIT%wËSÍWrX: 1
T: Manchester hornpipe
O:ireland
T: Rickett's hornpipe
O:ireland
R: Hornpipe, reel
M: 4/4
K: D
(3ABc \
| "D"dcdA FAdf | "A7"edcB A2g2 | "D"fgaf "G"gfed | "A7"edcB A2fe | "D"dcdA FAdf |
| "A7"edcB A2g2 | "D"fgaf "A7"bgec | "D"d2f2 d2 :: fg | "D"afaf "(Bm)"d2ga | "Em"bgbg "A7"e2fg |
| "D"afaf "G"bagf | "E7"edcB "A7"A2fe | "D"dcdA FAdf | "A7"edcB A2g2 | "D"fgaf "A7"bgec | "D"d2f2 d2 :|






